packages/katcn/src/icons/svg/paint-solid.svg

<svg width="24" height="25" viewBox="0 0 24 25" fill="none" xmlns="http://www.w3.org/2000/svg">
<path d="M22.7 12.968L12 2.26802C11.6 1.86802 11 1.86802 10.6 2.26802L2.3 10.468C1.5 11.368 1 12.468 1 13.668C1 14.868 1.5 16.068 2.3 16.868L8.1 22.668C9 23.568 10.1 23.968 11.3 23.968C12.5 23.968 13.6 23.568 14.5 22.668L22.7 14.368C23 14.068 23.1 13.368 22.7 12.968ZM11.3 4.36802L19.6 12.668H3.2C3.3 12.368 3.5 12.168 3.7 11.868L11.3 4.36802Z" fill="black"/>
</svg>

<svg xmlns="http://www.w3.org/2000/svg" fill="none" viewBox="0 0 24 25"><path fill="#000" d="M22.7 12.968 12 2.268c-.4-.4-1-.4-1.4 0l-8.3 8.2c-.8.9-1.3 2-1.3 3.2s.5 2.4 1.3 3.2l5.8 5.8c.9.9 2 1.3 3.2 1.3s2.3-.4 3.2-1.3l8.2-8.3c.3-.3.4-1 0-1.4m-11.4-8.6 8.3 8.3H3.2c.1-.3.3-.5.5-.8z"/></svg>
